X: 27096
T: Miss Linda MacFarlane
R: reel
M: 4/4
K: Gmajor
D2|G2 F>G DGBd|d2 c>A G2 F>G|E2 e>d cBAG|B2 A2 A2
D2|G2 F>G DGBd|d2 c>A G2 F>G|E2 e>d cFBA|G2 G>A G2||
B>c|d2 B>c dBgd|e2 c>d ecge|d2 D>G Bdgd|B2 A2 A2
D2|G2 F>G DGBd|d2 c>A G2 F>G|E2 e>d cFBA|G2 G>A G2||

